public/svg/arright.svg

<svg width="93" height="26" viewBox="0 0 93 26" fill="none" xmlns="http://www.w3.org/2000/svg">
<g clip-path="url(#clip0)">
<path d="M68.402 9.81932L64.2391 9.22819L60.0847 8.7172C58.6942 8.57693 57.3122 8.40661 55.9218 8.28638L51.7165 7.92568C46.1546 7.50487 40.5758 7.17424 34.9885 6.8436L26.6033 6.28252C23.8054 6.09216 21.016 5.83166 18.2181 5.57115C12.6648 5.01008 7.08595 4.3989 1.51562 3.70757L2.96543 2.2648C2.79586 5.7515 2.79586 9.27828 2.88913 12.7449C2.98239 16.2116 3.08413 19.8486 2.98239 23.4555L1.59192 21.8424C7.11139 21.5218 12.6139 21.1411 18.1503 20.7203L34.7596 19.4478C40.2875 19.0371 45.7816 18.5962 51.3434 18.2455C56.9053 17.8949 62.4078 17.5943 67.9527 17.3538C68.1775 17.3405 68.3976 17.4333 68.5646 17.6118C68.7315 17.7903 68.8317 18.0399 68.8429 18.3056C68.8541 18.5714 68.7756 18.8315 68.6245 19.0288C68.4735 19.2261 68.2623 19.3444 68.0374 19.3577C62.518 19.7785 57.0155 20.2694 51.4875 20.8004L34.8952 22.3033C29.3758 22.8243 23.8733 23.3053 18.3284 23.7661C12.7835 24.227 7.264 24.6278 1.69367 24.9785C1.34909 24.9869 1.01518 24.8371 0.762175 24.5605C0.50917 24.284 0.356798 23.9022 0.337115 23.4956C0.337115 23.4956 0.337115 23.4055 0.337115 23.3654C0.430378 19.8887 0.116676 16.3519 0.0488485 12.8351C-0.018979 9.31836 -0.00202215 5.66133 -0.00202215 2.07443C0.0527609 1.63934 0.247058 1.24581 0.540628 0.975362C0.834198 0.704912 1.20455 0.57826 1.57497 0.621636H1.69367C7.23856 1.34302 12.8343 2.02433 18.3962 2.62549C23.958 3.22665 29.5623 3.68753 35.1411 4.12838C40.7199 4.56923 46.3157 4.94996 51.903 5.57115L56.0998 6.0621C57.4987 6.23243 58.8892 6.44283 60.2882 6.6332L64.4341 7.29447L68.614 8.01586C68.7959 8.07242 68.954 8.20557 69.0587 8.39025C69.1634 8.57494 69.2073 8.79845 69.1823 9.01875C69.1573 9.23906 69.0651 9.44098 68.923 9.58657C68.7808 9.73215 68.5986 9.81136 68.4105 9.8093L68.402 9.81932Z" fill="#3A3C51"/>
<path d="M69.3504 2.82508C69.3051 6.16484 69.2882 9.53465 69.2995 12.9345L69.3673 18.9461C69.3673 20.9499 69.3673 22.9538 69.4606 24.9576L68.1125 23.9557C71.8345 21.8617 75.3192 19.6875 78.9988 17.4933C82.6785 15.2991 86.4768 12.9746 89.8682 10.8706V15.0285L87.2229 13.6058L84.4928 12.143C82.6022 11.1411 80.7793 10.1391 78.9225 9.13722L76.1925 7.45398C75.2853 6.88288 74.3781 6.32181 73.4709 5.73067C72.5637 5.13953 71.6734 4.53838 70.7832 3.90716C70.2999 3.56651 69.8336 3.18578 69.3504 2.82508ZM68.8586 0.0798029C69.876 0.373701 70.8765 0.707677 71.86 1.08173C72.852 1.4324 73.827 1.84319 74.8105 2.23395C75.794 2.6247 76.752 3.07556 77.7186 3.49637L80.5419 4.84897C82.4495 5.78077 84.3233 6.77267 86.197 7.78462L89.0203 9.30755L91.8097 10.8706H91.8945C92.2239 11.0563 92.5008 11.3507 92.6917 11.7182C92.8826 12.0858 92.9794 12.5108 92.9704 12.9419C92.9615 13.3731 92.8471 13.792 92.6412 14.148C92.4352 14.504 92.1464 14.782 91.8097 14.9484C88.0114 16.822 84.1791 18.6054 80.3384 20.3788C76.4977 22.1522 72.7078 23.9557 68.8756 25.8393H68.8247C68.7117 25.8953 68.5905 25.9244 68.4679 25.925C68.3454 25.9256 68.224 25.8976 68.1106 25.8427C67.9972 25.7878 67.8941 25.7071 67.8071 25.6051C67.7202 25.503 67.6511 25.3818 67.6038 25.2482C67.5511 25.1027 67.5251 24.9456 67.5275 24.7873C67.5868 22.7835 67.5868 20.7796 67.6208 18.7758L67.6886 12.7642C67.6886 8.75649 67.6886 4.8089 67.6292 0.841267C67.6449 0.701673 67.6852 0.567537 67.7476 0.447608C67.8101 0.327679 67.8932 0.224649 67.9916 0.145238C68.09 0.0658264 68.2015 0.0118169 68.3187 -0.0132688C68.436 -0.0383545 68.5564 -0.033953 68.6721 -0.000351226L68.8586 0.0798029Z" fill="#3A3C51"/>
<path d="M64.6703 12.6939C64.6703 12.6939 61.6944 12.233 57.2347 11.9825C55.0049 11.8623 52.402 11.5617 49.6041 11.4515C46.8063 11.3413 43.8388 11.1409 40.8544 11.0307C37.87 10.9205 34.9195 10.7802 32.1046 10.5999C29.2898 10.4195 26.7124 10.2893 24.4741 10.0789C22.2357 9.86848 20.3874 9.65808 19.0902 9.47773C17.793 9.29738 17.0554 9.17715 17.0554 9.17715C16.9885 9.16344 16.9278 9.12225 16.8841 9.06084C16.8404 8.99944 16.8164 8.92176 16.8164 8.8415C16.8164 8.76125 16.8404 8.68357 16.8841 8.62217C16.9278 8.56076 16.9885 8.51957 17.0554 8.50586C17.0554 8.50586 17.8015 8.50586 19.1072 8.50586C20.4129 8.50586 22.2781 8.50586 24.508 8.61607C26.7378 8.72628 29.3407 8.88659 32.1386 9.08698C34.9364 9.28736 37.8954 9.55788 40.8714 9.81838C43.8473 10.0789 46.8063 10.3594 49.5957 10.5798C52.3851 10.8003 54.988 10.9706 57.2263 11.1409C61.6859 11.4716 64.6618 11.6118 64.6618 11.6118C64.8229 11.6118 64.9416 12.0026 64.9332 12.1829C64.9247 12.3633 64.7975 12.724 64.6364 12.724L64.6703 12.6939Z" fill="#3A3C51"/>
<path d="M13.0116 7.2841C13.049 7.37686 13.0775 7.47433 13.0964 7.57465C13.1338 7.75906 13.1338 7.95132 13.0964 8.13573C13.0527 8.31418 12.971 8.47635 12.859 8.60664C12.7949 8.6741 12.7236 8.73136 12.647 8.77697C12.5069 8.85114 12.3481 8.85925 12.2031 8.79965C12.0581 8.74006 11.9379 8.61725 11.867 8.45635C11.8309 8.36387 11.8052 8.26618 11.7907 8.16579C11.7683 7.98327 11.7859 7.79703 11.8415 7.62475C11.8997 7.44779 11.9927 7.28978 12.1129 7.16386C12.1654 7.10772 12.2221 7.05741 12.2824 7.01358C12.41 6.93853 12.5572 6.92478 12.6931 6.97522C12.8291 7.02565 12.9432 7.13636 13.0116 7.2841Z" fill="#3A3C51"/>
<path d="M10.2914 7.01237C10.3534 7.12157 10.3967 7.24413 10.4186 7.37306C10.4768 7.63922 10.4768 7.91847 10.4186 8.18462C10.3509 8.4491 10.2251 8.68764 10.054 8.87595C9.97095 8.96341 9.87647 9.03446 9.77424 9.08636C9.70261 9.11878 9.62577 9.13197 9.54929 9.12497C9.47281 9.11796 9.39861 9.09094 9.33206 9.04587C9.26551 9.00079 9.20828 8.93879 9.16451 8.86434C9.12074 8.7899 9.09154 8.70488 9.07901 8.61545V8.5353C9.07262 8.4319 9.07262 8.32809 9.07901 8.2247C9.08452 8.03624 9.11602 7.85011 9.17227 7.67364C9.23126 7.4944 9.31117 7.32578 9.40967 7.17268L9.58771 6.92219C9.66462 6.83445 9.76471 6.78059 9.87121 6.76965C9.97771 6.75871 10.0842 6.79134 10.1727 6.86208L10.2321 6.94223L10.2914 7.01237Z" fill="#3A3C51"/>
<path d="M7.63007 7.09258C7.63994 7.17134 7.65699 7.24861 7.68094 7.32303C7.70284 7.42494 7.70284 7.53171 7.68094 7.63362C7.64985 7.72907 7.5933 7.80996 7.51985 7.86407L7.37572 8.01436H7.24854C7.1337 8.0848 7.00233 8.10826 6.87499 8.08107C6.74766 8.05387 6.63155 7.97756 6.54483 7.86407C6.48779 7.78466 6.44457 7.69273 6.41766 7.59355C6.36078 7.40223 6.36078 7.19372 6.41766 7.00241C6.49936 6.82579 6.62727 6.68519 6.78223 6.60164C6.83784 6.56451 6.89786 6.53748 6.96028 6.52148H7.12137C7.2491 6.53202 7.36974 6.59478 7.46257 6.699C7.5554 6.80321 7.61463 6.94238 7.63007 7.09258Z" fill="#3A3C51"/>
</g>
<defs>
<clipPath id="clip0">
<rect width="93" height="26" fill="white"/>
</clipPath>
</defs>
</svg>

<svg xmlns="http://www.w3.org/2000/svg" width="93" height="26" fill="none" xmlns:v="https://vecta.io/nano"><g clip-path="url(#A)" fill="#3a3c51"><path d="M68.402 9.82l-4.163-.59-4.154-.51-4.163-.43-4.205-.36L34.99 6.844l-8.385-.56-8.385-.71L1.516 3.708l1.45-1.443c-.17 3.487-.17 7.013-.076 10.48s.195 7.104.093 10.71l-1.4-1.613L18.15 20.72l16.61-1.273 16.584-1.202 16.61-.892c.225-.013.445.08.612.258s.267.428.278.694a1.12 1.12 0 0 1-.218.723c-.15.197-.362.316-.587.33L51.488 20.8l-16.592 1.503-16.567 1.463L1.694 24.98c-.345.008-.678-.14-.93-.418s-.405-.658-.425-1.065v-.13C.43 19.89.117 16.352.05 12.835l-.05-10.76c.055-.435.25-.83.543-1.1S1.205.578 1.575.622h.12l16.703 2.004c5.562.6 11.166 1.062 16.745 1.503L51.903 5.57l4.197.49c1.4.17 2.79.38 4.188.57l4.146.66 4.18.72a.79.79 0 0 1 .445.374c.105.185.15.408.124.63a.97.97 0 0 1-.259.568c-.142.146-.324.225-.513.223l-.008.01z"/><path d="M69.35 2.825l-.05 10.1.068 6.012.093 6-1.348-1.002C71.835 21.86 75.32 19.687 79 17.493l10.87-6.623v4.158l-2.645-1.423-2.73-1.463-5.57-3.006-2.73-1.683L73.47 5.73a80.43 80.43 0 0 1-2.688-1.824c-.483-.34-.95-.72-1.433-1.082zM68.86.08a38.48 38.48 0 0 1 3.001 1.002c.992.35 1.967.76 2.95 1.152s1.94.842 2.908 1.262l2.823 1.353c1.908.932 3.78 1.924 5.655 2.936l2.823 1.523 2.8 1.563h.085a2.04 2.04 0 0 1 .797.848 2.55 2.55 0 0 1 .279 1.224c-.01.43-.123.85-.33 1.206s-.495.634-.83.8c-3.798 1.874-7.63 3.657-11.47 5.43l-11.463 5.46h-.05a.81.81 0 0 1-.357.086.81.81 0 0 1-.357-.082.94.94 0 0 1-.303-.238 1.12 1.12 0 0 1-.203-.357 1.3 1.3 0 0 1-.076-.461l.093-6 .068-6.012L67.63.84a1.14 1.14 0 0 1 .118-.394c.062-.12.146-.223.244-.302a.78.78 0 0 1 .327-.159.72.72 0 0 1 .353.013l.186.08zm-4.2 12.614s-2.976-.46-7.436-.7l-7.63-.53-8.75-.42-8.75-.43-7.63-.52-5.384-.6-2.035-.3c-.067-.014-.128-.055-.17-.116a.38.38 0 0 1-.068-.219.38.38 0 0 1 .068-.219c.044-.06.104-.103.17-.116h2.052l5.4.1 7.63.47 8.733.73 8.724.76 7.63.56 7.435.47c.16 0 .28.4.27.57s-.136.54-.297.54l.034-.03zm-51.658-5.4a1.54 1.54 0 0 1 .085.291c.037.184.037.377 0 .56-.044.178-.125.34-.237.47a.98.98 0 0 1-.212.17.52.52 0 0 1-.444.023c-.144-.06-.265-.182-.336-.343a1.32 1.32 0 0 1-.076-.291c-.022-.183-.005-.37.05-.54s.15-.335.27-.46a1.19 1.19 0 0 1 .17-.15.47.47 0 0 1 .41-.038c.135.052.25.16.32.3zM10.3 7.012a1.12 1.12 0 0 1 .127.36 1.91 1.91 0 0 1 0 .812c-.068.264-.194.503-.365.7a1.03 1.03 0 0 1-.28.21.46.46 0 0 1-.225.04c-.077-.006-.15-.034-.217-.08a.56.56 0 0 1-.168-.182.66.66 0 0 1-.085-.25v-.08a2.52 2.52 0 0 1 0-.311 2.01 2.01 0 0 1 .093-.551c.06-.18.14-.348.237-.5l.178-.25c.077-.088.177-.142.284-.153a.41.41 0 0 1 .3.092l.06.08.06.07zm-2.66.08c.01.08.027.156.05.23a.74.74 0 0 1 0 .311c-.03.095-.088.176-.16.23l-.144.15H7.25a.51.51 0 0 1-.374.067.57.57 0 0 1-.33-.217.84.84 0 0 1-.127-.271 1.04 1.04 0 0 1 0-.59.86.86 0 0 1 .365-.401.58.58 0 0 1 .178-.08h.16c.128.01.248.073.34.178a.7.7 0 0 1 .167.394z"/></g><defs><clipPath id="A"><path fill="#fff" d="M0 0h93v26H0z"/></clipPath></defs></svg>
